assets/ionic.svg

<svg viewBox="0 0 32 32" fill="none"
  xmlns="http://www.w3.org/2000/svg">
  <path fill-rule="evenodd" clip-rule="evenodd" d="M30.4327 9.05578L30.5633 9.36054C31.5211 11.4721 32 13.6925 32 16C32 24.8163 24.8163 32 16 32C7.18367 32 0 24.8163 0 16C0 7.18367 7.18367 0 16 0C18.5905 0 21.0503 0.609524 23.3143 1.7415L23.619 1.89388L23.3578 2.11156C22.7048 2.63401 22.2041 3.28707 21.8776 4.04898L21.7905 4.26667L21.5946 4.17959C19.8313 3.35238 17.9592 2.91701 16 2.91701C8.77279 2.91701 2.91701 8.77279 2.91701 16C2.91701 23.2272 8.77279 29.083 16 29.083C23.2272 29.083 29.083 23.2054 29.083 16C29.083 14.2803 28.7565 12.5823 28.0816 10.9932L27.9946 10.7755L28.2122 10.6884C28.9741 10.4054 29.6707 9.92653 30.215 9.31701L30.4327 9.05578ZM26.4707 9.36057C28.3102 9.36057 29.8014 7.8694 29.8014 6.02996C29.8014 4.19051 28.3102 2.69934 26.4707 2.69934C24.6313 2.69934 23.1401 4.19051 23.1401 6.02996C23.1401 7.8694 24.6313 9.36057 26.4707 9.36057ZM15.9999 8.70754C11.9727 8.70754 8.7074 11.9728 8.7074 16.0001C8.7074 20.0273 11.9727 23.2926 15.9999 23.2926C20.0271 23.2926 23.2924 20.0273 23.2924 16.0001C23.2924 11.9728 20.0271 8.70754 15.9999 8.70754Z" fill="#4D8DFD"></path>
</svg>

<svg viewBox="0 0 32 32" fill="none" xmlns="http://www.w3.org/2000/svg"><path fill-rule="evenodd" clip-rule="evenodd" d="M30.433 9.056l.13.305A15.918 15.918 0 0132 16c0 8.816-7.184 16-16 16-8.816 0-16-7.184-16-16C0 7.184 7.184 0 16 0c2.59 0 5.05.61 7.314 1.742l.305.152-.261.218a4.97 4.97 0 00-1.48 1.937l-.087.218-.196-.087A13.058 13.058 0 0016 2.917C8.773 2.917 2.917 8.773 2.917 16S8.773 29.083 16 29.083 29.083 23.205 29.083 16c0-1.72-.326-3.418-1.001-5.007l-.087-.218.217-.087a5.08 5.08 0 002.003-1.371l.218-.261zm-3.962.305a3.33 3.33 0 100-6.662 3.33 3.33 0 000 6.662zM16 8.708a7.293 7.293 0 100 14.585 7.293 7.293 0 000-14.585z" fill="#4D8DFD"/></svg>
